X:1
T:Ahi che l'anima
T:Ahi che l'anima
T:Ludovico Bellanda Veronese
T:Source : Musische di L.Bellanda---Venetia---G.Vincenti---1607. Editor : André Vierendeels (05/07/15).
T:Notes : Original clefs : C3, F4 Figures in BC are notated in original print Lyrics by Alberto Fabriani 
C:Ludovico Bellanda Veronese
%%score 1 2
L:1/8
Q:1/4=120
M:4/4
K:F
V:1 treble-8 nm="Tenor" snm="T"
V:2 bass nm="BC" snm="BC"
V:1
 d8 | z2 A2 B2 ^FG | A4 z2 d2 | _e8 | d4 G4- | G2 A2 ^F4 | z2 A2 B4- | B4 A4 | A4 G4 | A8 | %10
w: Ahi,|che l'a- ni- ma|mia, si|strug-|g'e lan-|* * gue,|si strrug-|* g'e|lan- *|gue,|
 z2 A2 B3 c | d2 f4 dc | e4 z2 g2 | dd^c=B c2 c2 | z2 ee f4- | f2 gf e4 | d8 | z8 | a6 ^ff | %19
w: cru- del _|_ Nu- me d'A-|mor, per-|che, per- che non sen- ti,|i de- vo-|* ti la- men-|ti,||O miei so-|
 g3 d dddc | e2 ee f4- | f4 e4 | f8 | z8 | _e6 dd | d3 d cBBA | B2 Bc c4 | B>c d2- d4- | %28
w: spir in- te- ne- ri- t'il|giac- cio del du-|* re|sen,||la- gri- me|tem- pe- ra- te, de be-|gl'ioc- chi l'ar- do-|re on- * *|
 d2 cB A2 G2 | z4 d4- | d2 cB A2 G2 |[M:2/4] z4 |: z4 |[M:4/4] _e8 | BBBA c2 cc | cBdG A4- | %36
w: * do mi sfac- cio,|on-|* d'io mi sfac- cio,|||ohi-|me che fred- d'e- san- gue gia|ver- so l'al- m'e'il lan-|
 A2 A2 =B2 c2 | d8 | c8 | z4 c4- | c2 c2 c4 | ^F4 z4 | g6 e2 | e4 ^c2 z A | a8 | a2 d4 e2 | e4 d4 | %47
w: * gu'e pur t'a-|do-|ro,|por|_ mo- ren-|do,|pue mo-|ren- do t'in-|vo-|co, a- do-|ra- ta,|
 z2 g4 a2 | a4 g4 | z2 dc _e2 G2- | GG A2 A4 | G8 :| %52
w: a- do-|ra- ta|a- di- ra- t'al-|* ma di fo-|co.|
V:2
 G,8 | ^F,4 G,4 | D,4 =B,,4 |"^b" C,8 | G,2 G,,2 B,,2 C,2 |"^#" D,8 |"^6" ^C,4 D,4- | D,4 A,,4 | %8
"^5            6" B,,8 |"^#" A,,8 |"^#" A,,4 G,,4- | G,,2 A,,2 B,,4 |"^#" A,,8 | A,,8 | %14
"^#10""^11" A,,8 |"^#10" A,,8 |"^#" D,8- | D,4 =B,,4 |"^#" ^C,4 D,4 | G,,8 |"^#10""^11" C,8 | %21
"^#10" C,8 | F,,4 F,2 E,2 | D,2 C,2 B,,4 |"^b" C,8 | G,,8 | G,,4 F,,4 | B,,2 G,,A,, B,,2 C,2 | %28
 D,2 E,2 ^F,2 G,2- | G,2 ^F,2 G,4 |"^#""^-natural" C,4 D,2 G,,2 |[M:2/4] D,4 |: G,4 | %33
[M:4/4] C,6 D,2 | _E,2 B,,2 F,4 | C,2 G,2 D,4- |"^-natural" D,4 G,4 |"^-natural" G,,8 | C,8 | %39
 C,6 A,,2 | A,,8 |"^#" D,4 G,4- | G,2 C,2 C,4 |"^#" E,4 A,,4- | A,,2 G,,2 F,,2 E,,2 | D,,4 D,4 | %46
"^#""^#" A,,4 D,4 | G,8 |"^#""^-natural" D,4 G,4 |"^-natural""^b" G,,4 C,4 |"^6""^#" B,,4 D,4 | %51
"^-natural" G,,8 :| %52

